!!!COM: Bach, Johann Sebastian
!!!OTL@@DE: 305. Wie s&ouml;chn leuchtet der Morgenstern
!!!OTL@EN: How brightly shines the morning star
!!!SCA: BWV 36.4
**harm	**root	**kern	**kern	**kern	**kern
*staff2	*	*staff2	*staff2	*staff1	*staff1
*Iorgan	*Iorgan	*Iorgan	*Iorgan	*Iorgan	*Iorgan
*>[A,A,B]	*>[A,A,B]	*>[A,A,B]	*>[A,A,B]	*>[A,A,B]	*>[A,A,B]
*>norep[A,B]	*>norep[A,B]	*>norep[A,B]	*>norep[A,B]	*>norep[A,B]	*>norep[A,B]
*>A	*>A	*>A	*>A	*>A	*>A
!	!	!bass	!tenor	!alto	!sprno
*	*	*clefF4	*clefF4	*clefG2	*clefG2
*k[]	*k[]	*k[]	*k[]	*k[]	*k[]
*C:	*C:	*C:	*C:	*C:	*C:
*met(c)	*met(c)	*met(c)	*met(c)	*met(c)	*met(c)
*M4/4	*M4/4	*M4/4	*M4/4	*M4/4	*M4/4
*MM60	*MM60	*MM60	*MM60	*MM60	*MM60
I	4DD	4C	4E	4G	4c
=1	=1	=1	=1	=1	=1
Vb	4AA	4BB	4D	4G	4g
I	8DD	8CL	8CL	4G	8eL
Vb	8AA	8BBJ	8DJ	.	8dJ
vi	4BB	4AA	8EL	4A	4c
.	.	.	8F#J	.	.
iii	4FF#	8EL	4G	4B	4g
.	.	8DJ	.	.	.
=2	=2	=2	=2	=2	=2
vi7	4BB	8CL	4G	4e	8.aL
.	.	8AAJ	.	.	.
.	.	.	.	.	32bLL
.	.	.	.	.	32ccJJJ
V/V	4EE	4D	4F#	4d	8bL
.	.	.	.	.	8aJ
V;	4AA;	4GG;	4B;	4d;	4g;
I	4DD	4C	4c	4e	4g
=3	=3	=3	=3	=3	=3
IV	4GG	4F	4c	4f	4a
viiob	4CC#	8EL	4d	4f	4b
.	.	8DJ	.	.	.
Ib	4DD	8EL	8GL	4e	4cc
.	.	8F#J	8AJ	.	.
V	4AA	4G	4B	8dL	4b
.	.	.	.	8gJ	.
=4	=4	=4	=4	=4	=4
vi7b	8BB	4C	8EL	4g	8aL
I	8DD	.	8eJ	.	8ccJ
V7/V	4EE	4D	8dL	4f#	8bL
.	.	.	8cJ	.	8aJ
V;	4AA;	4GG;	4B;	4d;	4g;
I	4DD	4C	4G	4c	4e
=5	=5	=5	=5	=5	=5
IV	4GG	4F	4F	4c	4a
Ib	4DD	4E	4G	4c	4g
viio7b	4CC#	4D	8AL	8cL	4f
.	.	.	8FJ	8BJ	.
I	4DD	4C	4G	4c	4e
=6	=6	=6	=6	=6	=6
V7	2AA	2GG	4.G	4c	2d
.	.	.	.	4B	.
.	.	.	8F	.	.
I;	4DD;	4C;	4E;	4G;	4c;
=7:|!	=7:|!	=7:|!	=7:|!	=7:|!	=7:|!
!!linebreak: 2
*>B	*>B	*>B	*>B	*>B	*>B
Vb	2AA	2BB	2G	2d	2g
I;	2DD;	2C;	2G;	2c;	2e;
=8	=8	=8	=8	=8	=8
V	2AA	2GG	2B	2d	2g
I;	2DD;	2C;	2G;	2c;	2e;
=9	=9	=9	=9	=9	=9
I	4DD	8CL	4G	4c	4e
.	.	8D	.	.	.
Ib	4DD	8E	4G	4c	4e
.	.	8FJ	.	.	.
V	4AA	8GL	4G	4B	4d
.	.	8A	.	.	.
V	4AA	8G	4G	4B	4d
.	.	8FJ	.	.	.
=10	=10	=10	=10	=10	=10
Ib	4DD	8EL	4G	4c	4e
.	.	8D	.	.	.
I	4DD	8E	4G	4c	4e
.	.	8CJ	.	.	.
V	4AA	8GGL	4G	4B	4d
.	.	8G	.	.	.
viiob/II	4DD#	8F	4G	4c#	4e
.	.	8EJ	.	.	.
=11	=11	=11	=11	=11	=11
ii	4EE	4D	8AL	4d	4f
.	.	.	8BJ	.	.
vi	4BB	8AL	4c	8cL	4e
.	.	8GJ	.	8BJ	.
ii7b	4EE	4F	8cL	4A	2d
.	.	.	16BL	.	.
.	.	.	16AJJ	.	.
V7	4AA	4G	8GL	4B	.
.	.	.	8FJ	.	.
=12	=12	=12	=12	=12	=12
I;	2DD;	2C;	2E;	2G;	2c;
vi	4BB	4AA	8EL	4e	4cc
.	.	.	8F#J	.	.
V/VI	4FF#	4EE	4G#	8eL	4b
.	.	.	.	8dJ	.
=13	=13	=13	=13	=13	=13
IV	4GG	4FF	4A	8cL	4a
.	.	.	.	8dJ	.
iiib	4FF#	4GG	4B	[4e	4g
IV7	8GG	8AAL	8cL	8e]	4f
viio	8CC#	8BBJ	8dJ	4d	.
I	4DD	4C	4G	.	4e
.	.	.	.	[8c	.
=14	=14	=14	=14	=14	=14
ii	4EE	4FF	4A	8cL]	2d
.	.	.	.	16BL	.
.	.	.	.	16AJJ	.
V7	4AA	4GG	8GL	4B	.
.	.	.	8FJ	.	.
I;	4DD;	4CC;	4E;	4G;	4c;
==	==	==	==	==	==
*-	*-	*-	*-	*-	*-
!!!ENC: Craig Stuart Sapp
!!!END: 2004/12/06/
!!chor2scor: -l 2 -s 0.6 -o %b.pmx!!chor2scor: -l 2 -s 0.6 -o %b.pmx
